X:107
T:Vals efter Erik Nilsson
R:vals
Z:2007-09-11
O:Jämtland
S:efter [[!Erik Nilsson]]
S:känd genom [[!Kjell-Erik Eriksson]]
M:3/4
L:1/8
K:D
fg a2 a2|a2 ^ga ba|fg a2 a2|a2 f2 f2|g2 e2 e2|gf ed cB|AG FE D2|
fg a2 a2|a2 ^ga ba|fg a2 a2|a2 f2 f2|g2 e2 e2|gf ed cB|A2 f3 e|1 d4 A2:|
[2 d3 D FE|:D2 f3 e|d3 D FG|A2 B3 A|E6|g4 B2|B3 d cB|A2 f3 e|1 d3 A FE:|2 d6|]
(:musicend:)

När låten tas om kan man göra upptakt från a, så att sista takten blir:

(:music:)
